images/2711.svg

<?xml version="1.0" encoding="UTF-8"?>
<svg xmlns="http://www.w3.org/2000/svg" xmlns:xlink="http://www.w3.org/1999/xlink" width="300pt" height="300pt" viewBox="0 0 300 300" version="1.1">
<defs>
<g>
<symbol overflow="visible" id="glyph0-0">
<path style="stroke:none;" d="M 0.796875 2.828125 L 0.796875 -11.28125 L 8.796875 -11.28125 L 8.796875 2.828125 Z M 1.703125 1.9375 L 7.90625 1.9375 L 7.90625 -10.390625 L 1.703125 -10.390625 Z M 1.703125 1.9375 "/>
</symbol>
<symbol overflow="visible" id="glyph0-1">
<path style="stroke:none;" d="M 10.3125 -10.765625 L 10.3125 -9.109375 C 9.78125 -9.597656 9.210938 -9.960938 8.609375 -10.203125 C 8.003906 -10.453125 7.363281 -10.578125 6.6875 -10.578125 C 5.351562 -10.578125 4.332031 -10.171875 3.625 -9.359375 C 2.914062 -8.546875 2.5625 -7.367188 2.5625 -5.828125 C 2.5625 -4.285156 2.914062 -3.109375 3.625 -2.296875 C 4.332031 -1.484375 5.351562 -1.078125 6.6875 -1.078125 C 7.363281 -1.078125 8.003906 -1.195312 8.609375 -1.4375 C 9.210938 -1.6875 9.78125 -2.054688 10.3125 -2.546875 L 10.3125 -0.90625 C 9.757812 -0.53125 9.171875 -0.242188 8.546875 -0.046875 C 7.929688 0.140625 7.28125 0.234375 6.59375 0.234375 C 4.832031 0.234375 3.441406 -0.304688 2.421875 -1.390625 C 1.410156 -2.472656 0.90625 -3.953125 0.90625 -5.828125 C 0.90625 -7.703125 1.410156 -9.175781 2.421875 -10.25 C 3.441406 -11.332031 4.832031 -11.875 6.59375 -11.875 C 7.289062 -11.875 7.945312 -11.78125 8.5625 -11.59375 C 9.1875 -11.414062 9.769531 -11.140625 10.3125 -10.765625 Z M 10.3125 -10.765625 "/>
</symbol>
<symbol overflow="visible" id="glyph0-2">
<path style="stroke:none;" d="M 1.515625 -12.15625 L 2.953125 -12.15625 L 2.953125 0 L 1.515625 0 Z M 1.515625 -12.15625 "/>
</symbol>
</g>
</defs>
<g id="surface37789">
<rect x="0" y="0" width="300" height="300" style="fill:rgb(100%,100%,100%);fill-opacity:1;stroke:none;"/>
<path style="fill:none;stroke-width:1.2;stroke-linecap:butt;stroke-linejoin:miter;stroke:rgb(0%,0%,0%);stroke-opacity:1;stroke-miterlimit:10;" d="M 113.097656 190.917969 L 147.785156 174.796875 "/>
<path style="fill:none;stroke-width:1.2;stroke-linecap:butt;stroke-linejoin:miter;stroke:rgb(0%,0%,0%);stroke-opacity:1;stroke-miterlimit:10;" d="M 87.046875 162.910156 L 113.097656 190.917969 "/>
<path style="fill:none;stroke-width:1.2;stroke-linecap:butt;stroke-linejoin:miter;stroke:rgb(0%,0%,0%);stroke-opacity:1;stroke-miterlimit:10;" d="M 147.785156 174.796875 L 143.171875 136.828125 "/>
<path style="fill:none;stroke-width:1.2;stroke-linecap:butt;stroke-linejoin:miter;stroke:rgb(0%,0%,0%);stroke-opacity:1;stroke-miterlimit:10;" d="M 185.320312 182.144531 L 147.785156 174.796875 "/>
<path style="fill:none;stroke-width:1.2;stroke-linecap:butt;stroke-linejoin:miter;stroke:rgb(0%,0%,0%);stroke-opacity:1;stroke-miterlimit:10;" d="M 143.171875 136.828125 L 105.632812 129.480469 "/>
<path style="fill:none;stroke-width:1.2;stroke-linecap:butt;stroke-linejoin:miter;stroke:rgb(0%,0%,0%);stroke-opacity:1;stroke-miterlimit:10;" d="M 143.171875 136.828125 L 177.859375 120.707031 "/>
<path style="fill:none;stroke-width:1.2;stroke-linecap:butt;stroke-linejoin:miter;stroke:rgb(0%,0%,0%);stroke-opacity:1;stroke-miterlimit:10;" d="M 105.632812 129.480469 L 87.046875 162.910156 "/>
<path style="fill:none;stroke-width:1.2;stroke-linecap:butt;stroke-linejoin:miter;stroke:rgb(0%,0%,0%);stroke-opacity:1;stroke-miterlimit:10;" d="M 105.632812 129.480469 L 97.574219 112.136719 "/>
<path style="fill:none;stroke-width:1.2;stroke-linecap:butt;stroke-linejoin:miter;stroke:rgb(0%,80%,0%);stroke-opacity:1;stroke-miterlimit:10;" d="M 97.574219 112.136719 L 89.515625 94.792969 "/>
<path style="fill:none;stroke-width:1.2;stroke-linecap:butt;stroke-linejoin:miter;stroke:rgb(0%,0%,0%);stroke-opacity:1;stroke-miterlimit:10;" d="M 87.046875 162.910156 L 68.0625 165.214844 "/>
<path style="fill:none;stroke-width:1.2;stroke-linecap:butt;stroke-linejoin:miter;stroke:rgb(0%,80%,0%);stroke-opacity:1;stroke-miterlimit:10;" d="M 68.0625 165.214844 L 49.074219 167.519531 "/>
<path style=" stroke:none;fill-rule:nonzero;fill:rgb(100%,100%,100%);fill-opacity:1;" d="M 33.074219 158.019531 L 49.074219 158.019531 L 49.074219 177.019531 L 33.074219 177.019531 Z M 33.074219 158.019531 "/>
<g style="fill:rgb(0%,80%,0%);fill-opacity:1;">
  <use xlink:href="#glyph0-1" x="33.074219" y="172.871094"/>
  <use xlink:href="#glyph0-2" x="44.246094" y="172.871094"/>
</g>
<path style=" stroke:none;fill-rule:nonzero;fill:rgb(100%,100%,100%);fill-opacity:1;" d="M 73.515625 85.292969 L 89.515625 85.292969 L 89.515625 104.292969 L 73.515625 104.292969 Z M 73.515625 85.292969 "/>
<g style="fill:rgb(0%,80%,0%);fill-opacity:1;">
  <use xlink:href="#glyph0-1" x="73.515625" y="100.144531"/>
  <use xlink:href="#glyph0-2" x="84.6875" y="100.144531"/>
</g>
<path style="fill:none;stroke-width:1.2;stroke-linecap:butt;stroke-linejoin:miter;stroke:rgb(0%,0%,0%);stroke-opacity:1;stroke-miterlimit:10;" d="M 177.859375 120.707031 L 215.398438 128.054688 "/>
<path style="fill:none;stroke-width:1.2;stroke-linecap:butt;stroke-linejoin:miter;stroke:rgb(0%,0%,0%);stroke-opacity:1;stroke-miterlimit:10;" d="M 177.859375 120.707031 L 181.53125 101.9375 "/>
<path style="fill:none;stroke-width:1.2;stroke-linecap:butt;stroke-linejoin:miter;stroke:rgb(0%,80%,0%);stroke-opacity:1;stroke-miterlimit:10;" d="M 181.53125 101.9375 L 185.207031 83.167969 "/>
<path style="fill:none;stroke-width:1.2;stroke-linecap:butt;stroke-linejoin:miter;stroke:rgb(0%,0%,0%);stroke-opacity:1;stroke-miterlimit:10;" d="M 203.910156 148.714844 L 177.859375 120.707031 "/>
<path style="fill:none;stroke-width:1.2;stroke-linecap:butt;stroke-linejoin:miter;stroke:rgb(0%,0%,0%);stroke-opacity:1;stroke-miterlimit:10;" d="M 215.398438 128.054688 L 220.007812 166.023438 "/>
<path style="fill:none;stroke-width:1.2;stroke-linecap:butt;stroke-linejoin:miter;stroke:rgb(0%,0%,0%);stroke-opacity:1;stroke-miterlimit:10;" d="M 215.398438 128.054688 L 227.707031 113.417969 "/>
<path style="fill:none;stroke-width:1.2;stroke-linecap:butt;stroke-linejoin:miter;stroke:rgb(0%,80%,0%);stroke-opacity:1;stroke-miterlimit:10;" d="M 227.707031 113.417969 L 240.019531 98.785156 "/>
<path style="fill:none;stroke-width:1.2;stroke-linecap:butt;stroke-linejoin:miter;stroke:rgb(0%,0%,0%);stroke-opacity:1;stroke-miterlimit:10;" d="M 220.007812 166.023438 L 185.320312 182.144531 "/>
<path style="fill:none;stroke-width:1.2;stroke-linecap:butt;stroke-linejoin:miter;stroke:rgb(0%,0%,0%);stroke-opacity:1;stroke-miterlimit:10;" d="M 220.007812 166.023438 L 235.464844 177.285156 "/>
<path style="fill:none;stroke-width:1.2;stroke-linecap:butt;stroke-linejoin:miter;stroke:rgb(0%,80%,0%);stroke-opacity:1;stroke-miterlimit:10;" d="M 235.464844 177.285156 L 250.925781 188.546875 "/>
<path style="fill:none;stroke-width:1.2;stroke-linecap:butt;stroke-linejoin:miter;stroke:rgb(0%,0%,0%);stroke-opacity:1;stroke-miterlimit:10;" d="M 185.320312 182.144531 L 203.910156 148.714844 "/>
<path style="fill:none;stroke-width:1.2;stroke-linecap:butt;stroke-linejoin:miter;stroke:rgb(0%,0%,0%);stroke-opacity:1;stroke-miterlimit:10;" d="M 185.320312 182.144531 L 193.382812 199.488281 "/>
<path style="fill:none;stroke-width:1.2;stroke-linecap:butt;stroke-linejoin:miter;stroke:rgb(0%,80%,0%);stroke-opacity:1;stroke-miterlimit:10;" d="M 193.382812 199.488281 L 201.441406 216.832031 "/>
<path style="fill:none;stroke-width:1.2;stroke-linecap:butt;stroke-linejoin:miter;stroke:rgb(0%,0%,0%);stroke-opacity:1;stroke-miterlimit:10;" d="M 203.910156 148.714844 L 222.460938 153.363281 "/>
<path style="fill:none;stroke-width:1.2;stroke-linecap:butt;stroke-linejoin:miter;stroke:rgb(0%,80%,0%);stroke-opacity:1;stroke-miterlimit:10;" d="M 222.460938 153.363281 L 241.011719 158.011719 "/>
<path style="fill:none;stroke-width:1.2;stroke-linecap:butt;stroke-linejoin:miter;stroke:rgb(0%,0%,0%);stroke-opacity:1;stroke-miterlimit:10;" d="M 203.910156 148.714844 L 220.808594 139.757812 "/>
<path style="fill:none;stroke-width:1.2;stroke-linecap:butt;stroke-linejoin:miter;stroke:rgb(0%,80%,0%);stroke-opacity:1;stroke-miterlimit:10;" d="M 220.808594 139.757812 L 237.707031 130.804688 "/>
<path style=" stroke:none;fill-rule:nonzero;fill:rgb(100%,100%,100%);fill-opacity:1;" d="M 233.011719 148.511719 L 249.011719 148.511719 L 249.011719 167.511719 L 233.011719 167.511719 Z M 233.011719 148.511719 "/>
<g style="fill:rgb(0%,80%,0%);fill-opacity:1;">
  <use xlink:href="#glyph0-1" x="233.011719" y="163.363281"/>
  <use xlink:href="#glyph0-2" x="244.183594" y="163.363281"/>
</g>
<path style=" stroke:none;fill-rule:nonzero;fill:rgb(100%,100%,100%);fill-opacity:1;" d="M 229.707031 121.304688 L 245.707031 121.304688 L 245.707031 140.304688 L 229.707031 140.304688 Z M 229.707031 121.304688 "/>
<g style="fill:rgb(0%,80%,0%);fill-opacity:1;">
  <use xlink:href="#glyph0-1" x="229.707031" y="136.15625"/>
  <use xlink:href="#glyph0-2" x="240.878906" y="136.15625"/>
</g>
<path style=" stroke:none;fill-rule:nonzero;fill:rgb(100%,100%,100%);fill-opacity:1;" d="M 193.441406 207.332031 L 209.441406 207.332031 L 209.441406 226.332031 L 193.441406 226.332031 Z M 193.441406 207.332031 "/>
<g style="fill:rgb(0%,80%,0%);fill-opacity:1;">
  <use xlink:href="#glyph0-1" x="193.441406" y="222.183594"/>
  <use xlink:href="#glyph0-2" x="204.613281" y="222.183594"/>
</g>
<path style=" stroke:none;fill-rule:nonzero;fill:rgb(100%,100%,100%);fill-opacity:1;" d="M 242.925781 179.046875 L 258.925781 179.046875 L 258.925781 198.046875 L 242.925781 198.046875 Z M 242.925781 179.046875 "/>
<g style="fill:rgb(0%,80%,0%);fill-opacity:1;">
  <use xlink:href="#glyph0-1" x="242.925781" y="193.898438"/>
  <use xlink:href="#glyph0-2" x="254.097656" y="193.898438"/>
</g>
<path style=" stroke:none;fill-rule:nonzero;fill:rgb(100%,100%,100%);fill-opacity:1;" d="M 232.019531 89.285156 L 248.019531 89.285156 L 248.019531 108.285156 L 232.019531 108.285156 Z M 232.019531 89.285156 "/>
<g style="fill:rgb(0%,80%,0%);fill-opacity:1;">
  <use xlink:href="#glyph0-1" x="232.019531" y="104.136719"/>
  <use xlink:href="#glyph0-2" x="243.191406" y="104.136719"/>
</g>
<path style=" stroke:none;fill-rule:nonzero;fill:rgb(100%,100%,100%);fill-opacity:1;" d="M 177.207031 73.667969 L 193.207031 73.667969 L 193.207031 92.667969 L 177.207031 92.667969 Z M 177.207031 73.667969 "/>
<g style="fill:rgb(0%,80%,0%);fill-opacity:1;">
  <use xlink:href="#glyph0-1" x="177.207031" y="88.519531"/>
  <use xlink:href="#glyph0-2" x="188.378906" y="88.519531"/>
</g>
</g>
</svg>

<svg xmlns="http://www.w3.org/2000/svg" xmlns:xlink="http://www.w3.org/1999/xlink" width="300pt" height="300pt" viewBox="0 0 300 300"><defs><symbol overflow="visible"><path d="M.797 2.828v-14.11h8V2.83zm.906-.89h6.203v-12.33H1.703zm0 0"/></symbol><symbol overflow="visible" id="a"><path d="M10.313-10.766v1.657c-.532-.488-1.102-.85-1.704-1.093-.606-.25-1.247-.375-1.922-.375-1.336 0-2.356.406-3.063 1.22-.71.81-1.063 1.99-1.063 3.53 0 1.543.352 2.72 1.063 3.53.707.814 1.727 1.22 3.063 1.22.675 0 1.316-.117 1.92-.36.603-.25 1.173-.617 1.704-1.11v1.642c-.554.375-1.14.664-1.765.86-.617.187-1.266.28-1.953.28-1.762 0-3.153-.54-4.172-1.625C1.41-2.474.906-3.954.906-5.83c0-1.875.504-3.348 1.516-4.422 1.02-1.082 2.41-1.625 4.172-1.625.695 0 1.35.094 1.968.28.626.18 1.208.454 1.75.83zm0 0"/></symbol><symbol overflow="visible" id="b"><path d="M1.516-12.156h1.437V0H1.516zm0 0"/></symbol></defs><g><path fill="#fff" d="M0 0h300v300H0z"/><path d="M113.098 190.918l34.687-16.12M87.047 162.91l26.05 28.008M147.785 174.797l-4.613-37.97M185.32 182.145l-37.535-7.348M143.172 136.828l-37.54-7.348M143.172 136.828l34.687-16.12M105.633 129.48l-18.586 33.43M105.633 129.48l-8.06-17.343" stroke-width="1.2" stroke="#000" stroke-miterlimit="10" fill="none"/><path d="M97.574 112.137l-8.058-17.344" stroke-width="1.2" stroke="#0c0" stroke-miterlimit="10" fill="none"/><path d="M87.047 162.91l-18.984 2.305" stroke-width="1.2" stroke="#000" stroke-miterlimit="10" fill="none"/><path d="M68.063 165.215l-18.99 2.305" stroke-width="1.2" stroke="#0c0" stroke-miterlimit="10" fill="none"/><path d="M33.074 158.02h16v19h-16zm0 0" fill="#fff"/><g fill="#0c0"><use xlink:href="#a" x="33.074" y="172.871"/><use xlink:href="#b" x="44.246" y="172.871"/></g><path d="M73.516 85.293h16v19h-16zm0 0" fill="#fff"/><g fill="#0c0"><use xlink:href="#a" x="73.516" y="100.145"/><use xlink:href="#b" x="84.688" y="100.145"/></g><path d="M177.86 120.707l37.538 7.348M177.86 120.707l3.67-18.77" stroke-width="1.2" stroke="#000" stroke-miterlimit="10" fill="none"/><path d="M181.53 101.938l3.677-18.77" stroke-width="1.2" stroke="#0c0" stroke-miterlimit="10" fill="none"/><path d="M203.91 148.715l-26.05-28.008M215.398 128.055l4.61 37.968M215.398 128.055l12.31-14.637" stroke-width="1.2" stroke="#000" stroke-miterlimit="10" fill="none"/><path d="M227.707 113.418l12.313-14.633" stroke-width="1.2" stroke="#0c0" stroke-miterlimit="10" fill="none"/><path d="M220.008 166.023l-34.688 16.122M220.008 166.023l15.457 11.262" stroke-width="1.2" stroke="#000" stroke-miterlimit="10" fill="none"/><path d="M235.465 177.285l15.46 11.262" stroke-width="1.2" stroke="#0c0" stroke-miterlimit="10" fill="none"/><path d="M185.32 182.145l18.59-33.43M185.32 182.145l8.063 17.343" stroke-width="1.2" stroke="#000" stroke-miterlimit="10" fill="none"/><path d="M193.383 199.488l8.058 17.344" stroke-width="1.2" stroke="#0c0" stroke-miterlimit="10" fill="none"/><path d="M203.91 148.715l18.55 4.648" stroke-width="1.2" stroke="#000" stroke-miterlimit="10" fill="none"/><path d="M222.46 153.363l18.552 4.65" stroke-width="1.2" stroke="#0c0" stroke-miterlimit="10" fill="none"/><path d="M203.91 148.715l16.9-8.957" stroke-width="1.2" stroke="#000" stroke-miterlimit="10" fill="none"/><path d="M220.81 139.758l16.897-8.953" stroke-width="1.2" stroke="#0c0" stroke-miterlimit="10" fill="none"/><path d="M233.012 148.512h16v19h-16zm0 0" fill="#fff"/><g fill="#0c0"><use xlink:href="#a" x="233.012" y="163.363"/><use xlink:href="#b" x="244.184" y="163.363"/></g><path d="M229.707 121.305h16v19h-16zm0 0" fill="#fff"/><g fill="#0c0"><use xlink:href="#a" x="229.707" y="136.156"/><use xlink:href="#b" x="240.879" y="136.156"/></g><path d="M193.44 207.332h16v19h-16zm0 0" fill="#fff"/><g fill="#0c0"><use xlink:href="#a" x="193.441" y="222.184"/><use xlink:href="#b" x="204.613" y="222.184"/></g><path d="M242.926 179.047h16v19h-16zm0 0" fill="#fff"/><g fill="#0c0"><use xlink:href="#a" x="242.926" y="193.898"/><use xlink:href="#b" x="254.098" y="193.898"/></g><path d="M232.02 89.285h16v19h-16zm0 0" fill="#fff"/><g fill="#0c0"><use xlink:href="#a" x="232.02" y="104.137"/><use xlink:href="#b" x="243.191" y="104.137"/></g><path d="M177.207 73.668h16v19h-16zm0 0" fill="#fff"/><g fill="#0c0"><use xlink:href="#a" x="177.207" y="88.52"/><use xlink:href="#b" x="188.379" y="88.52"/></g></g></svg>
